X:1
T:Lament for Jef Ar Penven
C:P. Monjanet
M:6/8
L:1/8
Q:1/4=84
K:D
%%MIDI droneon
%%MIDI drumon
z3 e3 \
|: {g}B2 {d}B {g}f3 | {a}gfe {g}d3 | {g}efe {gde}d2 B | {gef}e2 d {gcd}c3 | -c3 {g}B2 {d}B |$
{g}f3 {gde}dcd | {g}e3 {a}gfe | {gde}d2 B {g}c2 d | {gBd}B6 :|$
|: {g}f2 a {fg}f2 e/d/ | {g}e2 f {g}B2 c/d/ | {g}e2 f a3/2g/a | {e}f6 |$
{g}f2 a {fg}f2 e/d/ | {g}e2 f {g}B2 c/d/ |  {g}e2 f {gde}d2 c | {gcd}c/B3/2-B {d}B2 :|$
%%MIDI droneoff
%%MIDI drumoff

